release/datafiles/colormanagement/LUTs/sRGB_CCTF_to_Linear.spi1d
Version 1
From 0.0000000000 1.0000000000
Length 1024
Components 1
{
 0.0000000000
 0.0000756592
 0.0001513184
 0.0002269777
 0.0003026369
 0.0003782961
 0.0004539553
 0.0005296145
 0.0006052738
 0.0006809330
 0.0007565922
 0.0008322514
 0.0009079106
 0.0009835698
 0.0010592291
 0.0011348883
 0.0012105475
 0.0012862067
 0.0013618659
 0.0014375252
 0.0015131844
 0.0015888436
 0.0016645028
 0.0017401620
 0.0018158213
 0.0018914805
 0.0019671397
 0.0020427989
 0.0021184581
 0.0021941173
 0.0022697766
 0.0023454358
 0.0024210950
 0.0024967542
 0.0025724134
 0.0026480727
 0.0027237319
 0.0027993911
 0.0028750503
 0.0029507095
 0.0030263688
 0.0031020280
 0.0031787022
 0.0032568918
 0.0033361920
 0.0034166072
 0.0034981420
 0.0035808006
 0.0036645875
 0.0037495070
 0.0038355634
 0.0039227611
 0.0040111044
 0.0041005975
 0.0041912447
 0.0042830500
 0.0043760179
 0.0044701524
 0.0045654576
 0.0046619377
 0.0047595968
 0.0048584390
 0.0049584683
 0.0050596888
 0.0051621045
 0.0052657193
 0.0053705373
 0.0054765625
 0.0055837987
 0.0056922499
 0.0058019200
 0.0059128128
 0.0060249323
 0.0061382823
 0.0062528666
 0.0063686890
 0.0064857533
 0.0066040633
 0.0067236227
 0.0068444353
 0.0069665049
 0.0070898350
 0.0072144295
 0.0073402920
 0.0074674261
 0.0075958355
 0.0077255239
 0.0078564948
 0.0079887518
 0.0081222985
 0.0082571386
 0.0083932755
 0.0085307127
 0.0086694539
 0.0088095025
 0.0089508620
 0.0090935359
 0.0092375276
 0.0093828407
 0.0095294786
 0.0096774446
 0.0098267423
 0.0099773749
 0.0101293460
 0.0102826588
 0.0104373168
 0.0105933233
 0.0107506816
 0.0109093950
 0.0110694669
 0.0112309006
 0.0113936994
 0.0115578664
 0.0117234051
 0.0118903187
 0.0120586103
 0.0122282833
 0.0123993409
 0.0125717862
 0.0127456224
 0.0129208529
 0.0130974806
 0.0132755088
 0.0134549407
 0.0136357794
 0.0138180280
 0.0140016897
 0.0141867675
 0.0143732646
 0.0145611840
 0.0147505289
 0.0149413023
 0.0151335072
 0.0153271468
 0.0155222241
 0.0157187421
 0.0159167038
 0.0161161122
 0.0163169704
 0.0165192813
 0.0167230480
 0.0169282734
 0.0171349605
 0.0173431121
 0.0175527314
 0.0177638212
 0.0179763845
 0.0181904242
 0.0184059431
 0.0186229443
 0.0188414306
 0.0190614049
 0.0192828700
 0.0195058289
 0.0197302844
 0.0199562394
 0.0201836967
 0.0204126592
 0.0206431297
 0.0208751109
 0.0211086059
 0.0213436172
 0.0215801478
 0.0218182005
 0.0220577779
 0.0222988830
 0.0225415184
 0.0227856870
 0.0230313915
 0.0232786346
 0.0235274190
 0.0237777476
 0.0240296231
 0.0242830480
 0.0245380253
 0.0247945575
 0.0250526474
 0.0253122977
 0.0255735110
 0.0258362900
 0.0261006374
 0.0263665559
 0.0266340481
 0.0269031166
 0.0271737641
 0.0274459933
 0.0277198068
 0.0279952071
 0.0282721970
 0.0285507790
 0.0288309557
 0.0291127297
 0.0293961037
 0.0296810801
 0.0299676617
 0.0302558508
 0.0305456502
 0.0308370624
 0.0311300899
 0.0314247353
 0.0317210011
 0.0320188899
 0.0323184041
 0.0326195464
 0.0329223192
 0.0332267250
 0.0335327664
 0.0338404459
 0.0341497659
 0.0344607289
 0.0347733375
 0.0350875940
 0.0354035011
 0.0357210610
 0.0360402764
 0.0363611496
 0.0366836832
 0.0370078795
 0.0373337410
 0.0376612701
 0.0379904693
 0.0383213410
 0.0386538875
 0.0389881114
 0.0393240150
 0.0396616008
 0.0400008711
 0.0403418283
 0.0406844748
 0.0410288130
 0.0413748452
 0.0417225739
 0.0420720014
 0.0424231301
 0.0427759623
 0.0431305004
 0.0434867468
 0.0438447037
 0.0442043735
 0.0445657586
 0.0449288613
 0.0452936838
 0.0456602286
 0.0460284979
 0.0463984941
 0.0467702194
 0.0471436762
 0.0475188667
 0.0478957933
 0.0482744582
 0.0486548637
 0.0490370121
 0.0494209057
 0.0498065467
 0.0501939374
 0.0505830801
 0.0509739770
 0.0513666303
 0.0517610424
 0.0521572155
 0.0525551517
 0.0529548534
 0.0533563228
 0.0537595620
 0.0541645734
 0.0545713591
 0.0549799214
 0.0553902624
 0.0558023843
 0.0562162895
 0.0566319800
 0.0570494580
 0.0574687259
 0.0578897856
 0.0583126395
 0.0587372896
 0.0591637382
 0.0595919875
 0.0600220395
 0.0604538965
 0.0608875606
 0.0613230340
 0.0617603189
 0.0621994173
 0.0626403314
 0.0630830634
 0.0635276153
 0.0639739894
 0.0644221877
 0.0648722124
 0.0653240656
 0.0657777494
 0.0662332659
 0.0666906172
 0.0671498055
 0.0676108328
 0.0680737012
 0.0685384129
 0.0690049699
 0.0694733743
 0.0699436282
 0.0704157337
 0.0708896928
 0.0713655077
 0.0718431803
 0.0723227128
 0.0728041072
 0.0732873657
 0.0737724901
 0.0742594827
 0.0747483454
 0.0752390802
 0.0757316894
 0.0762261748
 0.0767225385
 0.0772207825
 0.0777209089
 0.0782229197
 0.0787268170
 0.0792326026
 0.0797402788
 0.0802498474
 0.0807613104
 0.0812746700
 0.0817899281
 0.0823070866
 0.0828261477
 0.0833471132
 0.0838699852
 0.0843947657
 0.0849214566
 0.0854500600
 0.0859805778
 0.0865130119
 0.0870473644
 0.0875836373
 0.0881218324
 0.0886619518
 0.0892039974
 0.0897479712
 0.0902938752
 0.0908417112
 0.0913914812
 0.0919431873
 0.0924968312
 0.0930524150
 0.0936099406
 0.0941694100
 0.0947308250
 0.0952941876
 0.0958594997
 0.0964267633
 0.0969959802
 0.0975671524
 0.0981402818
 0.0987153703
 0.0992924198
 0.0998714322
 0.1004524095
 0.1010353534
 0.1016202660
 0.1022071491
 0.1027960047
 0.1033868345
 0.1039796405
 0.1045744245
 0.1051711886
 0.1057699344
 0.1063706639
 0.1069733791
 0.1075780816
 0.1081847735
 0.1087934566
 0.1094041327
 0.1100168037
 0.1106314715
 0.1112481379
 0.1118668047
 0.1124874739
 0.1131101473
 0.1137348266
 0.1143615138
 0.1149902107
 0.1156209192
 0.1162536410
 0.1168883780
 0.1175251320
 0.1181639049
 0.1188046984
 0.1194475145
 0.1200923548
 0.1207392213
 0.1213881158
 0.1220390400
 0.1226919958
 0.1233469850
 0.1240040094
 0.1246630708
 0.1253241709
 0.1259873117
 0.1266524948
 0.1273197221
 0.1279889954
 0.1286603164
 0.1293336870
 0.1300091089
 0.1306865839
 0.1313661138
 0.1320477004
 0.1327313454
 0.1334170506
 0.1341048178
 0.1347946488
 0.1354865452
 0.1361805090
 0.1368765418
 0.1375746453
 0.1382748215
 0.1389770719
 0.1396813984
 0.1403878028
 0.1410962866
 0.1418068518
 0.1425195001
 0.1432342331
 0.1439510526
 0.1446699605
 0.1453909583
 0.1461140478
 0.1468392308
 0.1475665090
 0.1482958841
 0.1490273579
 0.1497609320
 0.1504966082
 0.1512343882
 0.1519742737
 0.1527162664
 0.1534603681
 0.1542065804
 0.1549549051
 0.1557053439
 0.1564578984
 0.1572125703
 0.1579693614
 0.1587282734
 0.1594893080
 0.1602524668
 0.1610177515
 0.1617851638
 0.1625547055
 0.1633263782
 0.1641001835
 0.1648761232
 0.1656541989
 0.1664344124
 0.1672167653
 0.1680012592
 0.1687878958
 0.1695766769
 0.1703676040
 0.1711606789
 0.1719559031
 0.1727532784
 0.1735528065
 0.1743544889
 0.1751583274
 0.1759643235
 0.1767724790
 0.1775827954
 0.1783952745
 0.1792099179
 0.1800267272
 0.1808457041
 0.1816668501
 0.1824901670
 0.1833156565
 0.1841433200
 0.1849731592
 0.1858051759
 0.1866393716
 0.1874757479
 0.1883143064
 0.1891550489
 0.1899979768
 0.1908430919
 0.1916903958
 0.1925398900
 0.1933915762
 0.1942454559
 0.1951015309
 0.1959598027
 0.1968202729
 0.1976829432
 0.1985478150
 0.1994148902
 0.2002841701
 0.2011556565
 0.2020293509
 0.2029052549
 0.2037833702
 0.2046636982
 0.2055462407
 0.2064309992
 0.2073179752
 0.2082071704
 0.2090985863
 0.2099922246
 0.2108880868
 0.2117861745
 0.2126864892
 0.2135890326
 0.2144938061
 0.2154008115
 0.2163100502
 0.2172215239
 0.2181352340
 0.2190511822
 0.2199693700
 0.2208897990
 0.2218124707
 0.2227373868
 0.2236645487
 0.2245939579
 0.2255256162
 0.2264595250
 0.2273956858
 0.2283341003
 0.2292747699
 0.2302176963
 0.2311628809
 0.2321103252
 0.2330600310
 0.2340119996
 0.2349662326
 0.2359227316
 0.2368814980
 0.2378425335
 0.2388058395
 0.2397714176
 0.2407392694
 0.2417093962
 0.2426817997
 0.2436564814
 0.2446334429
 0.2456126855
 0.2465942109
 0.2475780206
 0.2485641160
 0.2495524987
 0.2505431703
 0.2515361322
 0.2525313859
 0.2535289329
 0.2545287748
 0.2555309131
 0.2565353492
 0.2575420847
 0.2585511211
 0.2595624598
 0.2605761023
 0.2615920503
 0.2626103051
 0.2636308682
 0.2646537412
 0.2656789255
 0.2667064227
 0.2677362341
 0.2687683614
 0.2698028059
 0.2708395692
 0.2718786528
 0.2729200581
 0.2739637866
 0.2750098398
 0.2760582192
 0.2771089262
 0.2781619623
 0.2792173290
 0.2802750278
 0.2813350601
 0.2823974274
 0.2834621312
 0.2845291729
 0.2855985541
 0.2866702760
 0.2877443403
 0.2888207484
 0.2898995017
 0.2909806018
 0.2920640500
 0.2931498478
 0.2942379966
 0.2953284980
 0.2964213533
 0.2975165641
 0.2986141317
 0.2997140577
 0.3008163434
 0.3019209903
 0.3030279998
 0.3041373735
 0.3052491126
 0.3063632188
 0.3074796933
 0.3085985377
 0.3097197534
 0.3108433417
 0.3119693042
 0.3130976423
 0.3142283574
 0.3153614509
 0.3164969243
 0.3176347789
 0.3187750163
 0.3199176378
 0.3210626448
 0.3222100389
 0.3233598213
 0.3245119935
 0.3256665570
 0.3268235131
 0.3279828633
 0.3291446089
 0.3303087515
 0.3314752923
 0.3326442329
 0.3338155745
 0.3349893187
 0.3361654668
 0.3373440203
 0.3385249804
 0.3397083488
 0.3408941266
 0.3420823154
 0.3432729166
 0.3444659314
 0.3456613614
 0.3468592080
 0.3480594724
 0.3492621562
 0.3504672606
 0.3516747872
 0.3528847373
 0.3540971122
 0.3553119133
 0.3565291422
 0.3577488000
 0.3589708882
 0.3601954083
 0.3614223615
 0.3626517493
 0.3638835730
 0.3651178340
 0.3663545336
 0.3675936734
 0.3688352545
 0.3700792785
 0.3713257467
 0.3725746604
 0.3738260210
 0.3750798299
 0.3763360884
 0.3775947979
 0.3788559599
 0.3801195755
 0.3813856463
 0.3826541735
 0.3839251586
 0.3851986028
 0.3864745076
 0.3877528743
 0.3890337042
 0.3903169988
 0.3916027593
 0.3928909871
 0.3941816836
 0.3954748500
 0.3967704879
 0.3980685985
 0.3993691831
 0.4006722431
 0.4019777798
 0.4032857947
 0.4045962890
 0.4059092640
 0.4072247212
 0.4085426618
 0.4098630872
 0.4111859987
 0.4125113977
 0.4138392854
 0.4151696633
 0.4165025327
 0.4178378949
 0.4191757511
 0.4205161029
 0.4218589514
 0.4232042980
 0.4245521440
 0.4259024908
 0.4272553397
 0.4286106920
 0.4299685490
 0.4313289121
 0.4326917825
 0.4340571616
 0.4354250508
 0.4367954512
 0.4381683643
 0.4395437913
 0.4409217336
 0.4423021924
 0.4436851692
 0.4450706651
 0.4464586816
 0.4478492199
 0.4492422813
 0.4506378671
 0.4520359786
 0.4534366172
 0.4548397842
 0.4562454807
 0.4576537083
 0.4590644680
 0.4604777614
 0.4618935895
 0.4633119538
 0.4647328556
 0.4661562960
 0.4675822765
 0.4690107984
 0.4704418628
 0.4718754711
 0.4733116247
 0.4747503247
 0.4761915725
 0.4776353693
 0.4790817165
 0.4805306153
 0.4819820671
 0.4834360730
 0.4848926344
 0.4863517526
 0.4878134289
 0.4892776644
 0.4907444606
 0.4922138186
 0.4936857398
 0.4951602255
 0.4966372768
 0.4981168951
 0.4995990817
 0.5010838378
 0.5025711647
 0.5040610637
 0.5055535360
 0.5070485829
 0.5085462057
 0.5100464057
 0.5115491840
 0.5130545420
 0.5145624810
 0.5160730021
 0.5175861067
 0.5191017961
 0.5206200714
 0.5221409339
 0.5236643850
 0.5251904258
 0.5267190576
 0.5282502817
 0.5297840992
 0.5313205116
 0.5328595200
 0.5344011257
 0.5359453299
 0.5374921339
 0.5390415389
 0.5405935462
 0.5421481570
 0.5437053726
 0.5452651942
 0.5468276230
 0.5483926604
 0.5499603075
 0.5515305656
 0.5531034359
 0.5546789197
 0.5562570182
 0.5578377327
 0.5594210643
 0.5610070144
 0.5625955841
 0.5641867747
 0.5657805874
 0.5673770235
 0.5689760842
 0.5705777707
 0.5721820843
 0.5737890261
 0.5753985975
 0.5770107996
 0.5786256337
 0.5802431009
 0.5818632026
 0.5834859399
 0.5851113141
 0.5867393264
 0.5883699779
 0.5900032701
 0.5916392039
 0.5932777808
 0.5949190018
 0.5965628682
 0.5982093813
 0.5998585422
 0.6015103522
 0.6031648124
 0.6048219241
 0.6064816885
 0.6081441069
 0.6098091803
 0.6114769101
 0.6131472974
 0.6148203435
 0.6164960495
 0.6181744167
 0.6198554462
 0.6215391393
 0.6232254973
 0.6249145211
 0.6266062122
 0.6283005717
 0.6299976007
 0.6316973006
 0.6333996724
 0.6351047174
 0.6368124368
 0.6385228318
 0.6402359035
 0.6419516533
 0.6436700822
 0.6453911914
 0.6471149822
 0.6488414558
 0.6505706133
 0.6523024560
 0.6540369849
 0.6557742014
 0.6575141066
 0.6592567016
 0.6610019878
 0.6627499662
 0.6645006380
 0.6662540045
 0.6680100667
 0.6697688260
 0.6715302834
 0.6732944403
 0.6750612976
 0.6768308567
 0.6786031186
 0.6803780847
 0.6821557560
 0.6839361337
 0.6857192191
 0.6875050132
 0.6892935172
 0.6910847325
 0.6928786600
 0.6946753010
 0.6964746566
 0.6982767280
 0.7000815165
 0.7018890231
 0.7036992490
 0.7055121954
 0.7073278635
 0.7091462544
 0.7109673693
 0.7127912093
 0.7146177757
 0.7164470695
 0.7182790920
 0.7201138443
 0.7219513276
 0.7237915430
 0.7256344917
 0.7274801748
 0.7293285936
 0.7311797491
 0.7330336425
 0.7348902750
 0.7367496477
 0.7386117618
 0.7404766184
 0.7423442188
 0.7442145639
 0.7460876551
 0.7479634934
 0.7498420800
 0.7517234160
 0.7536075027
 0.7554943411
 0.7573839323
 0.7592762776
 0.7611713781
 0.7630692349
 0.7649698491
 0.7668732220
 0.7687793546
 0.7706882482
 0.7725999037
 0.7745143225
 0.7764315055
 0.7783514540
 0.7802741691
 0.7821996520
 0.7841279037
 0.7860589254
 0.7879927183
 0.7899292834
 0.7918686220
 0.7938107351
 0.7957556239
 0.7977032895
 0.7996537330
 0.8016069556
 0.8035629584
 0.8055217426
 0.8074833092
 0.8094476594
 0.8114147943
 0.8133847150
 0.8153574228
 0.8173329186
 0.8193112037
 0.8212922790
 0.8232761459
 0.8252628054
 0.8272522585
 0.8292445065
 0.8312395505
 0.8332373915
 0.8352380307
 0.8372414693
 0.8392477082
 0.8412567488
 0.8432685919
 0.8452832389
 0.8473006908
 0.8493209486
 0.8513440136
 0.8533698869
 0.8553985694
 0.8574300625
 0.8594643671
 0.8615014844
 0.8635414155
 0.8655841615
 0.8676297235
 0.8696781027
 0.8717293000
 0.8737833167
 0.8758401539
 0.8778998126
 0.8799622939
 0.8820275990
 0.8840957290
 0.8861666849
 0.8882404679
 0.8903170790
 0.8923965194
 0.8944787902
 0.8965638924
 0.8986518273
 0.9007425957
 0.9028361990
 0.9049326381
 0.9070319141
 0.9091340282
 0.9112389815
 0.9133467750
 0.9154574098
 0.9175708870
 0.9196872078
 0.9218063732
 0.9239283843
 0.9260532421
 0.9281809479
 0.9303115027
 0.9324449075
 0.9345811634
 0.9367202716
 0.9388622331
 0.9410070491
 0.9431547205
 0.9453052485
 0.9474586342
 0.9496148786
 0.9517739829
 0.9539359481
 0.9561007753
 0.9582684655
 0.9604390200
 0.9626124396
 0.9647887256
 0.9669678790
 0.9691499009
 0.9713347923
 0.9735225544
 0.9757131882
 0.9779066948
 0.9801030752
 0.9823023306
 0.9845044619
 0.9867094704
 0.9889173570
 0.9911281229
 0.9933417690
 0.9955582965
 0.9977777065
 1.0000000000
}
# sRGB CCTF to Display Linear
