release/datafiles/colormanagement/LUTs/sRGB_Linear_to_CCTF.spi1d
Version 1
From 0.0000000000 1.0000000000
Length 8192
Components 1
{
 0.0000000000
 0.0015773410
 0.0031546820
 0.0047320230
 0.0063093639
 0.0078867049
 0.0094640459
 0.0110413869
 0.0126187279
 0.0141960689
 0.0157734098
 0.0173507508
 0.0189280918
 0.0205054328
 0.0220827738
 0.0236601148
 0.0252374557
 0.0268147967
 0.0283921377
 0.0299694787
 0.0315468197
 0.0331241607
 0.0347015016
 0.0362788426
 0.0378561836
 0.0394335246
 0.0409992048
 0.0425207372
 0.0440097400
 0.0454680346
 0.0468972813
 0.0482989990
 0.0496745811
 0.0510253095
 0.0523523665
 0.0536568454
 0.0549397595
 0.0562020497
 0.0574445919
 0.0586682028
 0.0598736455
 0.0610616341
 0.0622328379
 0.0633878855
 0.0645273678
 0.0656518414
 0.0667618310
 0.0678578322
 0.0689403132
 0.0700097175
 0.0710664652
 0.0721109547
 0.0731435645
 0.0741646544
 0.0751745666
 0.0761736272
 0.0771621470
 0.0781404224
 0.0791087366
 0.0800673602
 0.0810165520
 0.0819565598
 0.0828876207
 0.0838099622
 0.0847238025
 0.0856293510
 0.0865268086
 0.0874163688
 0.0882982173
 0.0891725329
 0.0900394877
 0.0908992477
 0.0917519725
 0.0925978163
 0.0934369278
 0.0942694503
 0.0950955226
 0.0959152784
 0.0967288472
 0.0975363541
 0.0983379202
 0.0991336626
 0.0999236947
 0.1007081264
 0.1014870642
 0.1022606113
 0.1030288678
 0.1037919307
 0.1045498942
 0.1053028498
 0.1060508864
 0.1067940901
 0.1075325448
 0.1082663320
 0.1089955308
 0.1097202184
 0.1104404696
 0.1111563576
 0.1118679531
 0.1125753255
 0.1132785420
 0.1139776682
 0.1146727682
 0.1153639042
 0.1160511369
 0.1167345257
 0.1174141284
 0.1180900013
 0.1187621995
 0.1194307767
 0.1200957854
 0.1207572768
 0.1214153010
 0.1220699068
 0.1227211420
 0.1233690533
 0.1240136864
 0.1246550859
 0.1252932954
 0.1259283577
 0.1265603145
 0.1271892067
 0.1278150743
 0.1284379565
 0.1290578915
 0.1296749170
 0.1302890698
 0.1309003857
 0.1315089002
 0.1321146478
 0.1327176623
 0.1333179771
 0.1339156246
 0.1345106368
 0.1351030449
 0.1356928798
 0.1362801714
 0.1368649494
 0.1374472427
 0.1380270798
 0.1386044886
 0.1391794966
 0.1397521305
 0.1403224168
 0.1408903816
 0.1414560502
 0.1420194476
 0.1425805985
 0.1431395270
 0.1436962568
 0.1442508113
 0.1448032134
 0.1453534855
 0.1459016499
 0.1464477283
 0.1469917421
 0.1475337123
 0.1480736598
 0.1486116047
 0.1491475672
 0.1496815670
 0.1502136235
 0.1507437557
 0.1512719823
 0.1517983220
 0.1523227928
 0.1528454127
 0.1533661993
 0.1538851700
 0.1544023417
 0.1549177315
 0.1554313557
 0.1559432308
 0.1564533728
 0.1569617976
 0.1574685207
 0.1579735575
 0.1584769232
 0.1589786327
 0.1594787007
 0.1599771417
 0.1604739700
 0.1609691996
 0.1614628445
 0.1619549184
 0.1624454347
 0.1629344067
 0.1634218477
 0.1639077704
 0.1643921878
 0.1648751123
 0.1653565564
 0.1658365324
 0.1663150523
 0.1667921281
 0.1672677715
 0.1677419942
 0.1682148076
 0.1686862230
 0.1691562516
 0.1696249044
 0.1700921923
 0.1705581260
 0.1710227162
 0.1714859732
 0.1719479074
 0.1724085290
 0.1728678481
 0.1733258747
 0.1737826185
 0.1742380893
 0.1746922966
 0.1751452500
 0.1755969587
 0.1760474321
 0.1764966792
 0.1769447090
 0.1773915306
 0.1778371525
 0.1782815837
 0.1787248327
 0.1791669079
 0.1796078177
 0.1800475706
 0.1804861746
 0.1809236379
 0.1813599685
 0.1817951744
 0.1822292632
 0.1826622429
 0.1830941211
 0.1835249053
 0.1839546030
 0.1843832217
 0.1848107686
 0.1852372511
 0.1856626762
 0.1860870510
 0.1865103826
 0.1869326779
 0.1873539437
 0.1877741869
 0.1881934141
 0.1886116320
 0.1890288471
 0.1894450660
 0.1898602950
 0.1902745406
 0.1906878091
 0.1911001066
 0.1915114393
 0.1919218134
 0.1923312349
 0.1927397097
 0.1931472438
 0.1935538430
 0.1939595132
 0.1943642600
 0.1947680892
 0.1951710063
 0.1955730170
 0.1959741268
 0.1963743411
 0.1967736653
 0.1971721048
 0.1975696649
 0.1979663508
 0.1983621677
 0.1987571208
 0.1991512151
 0.1995444558
 0.1999368478
 0.2003283961
 0.2007191056
 0.2011089811
 0.2014980274
 0.2018862494
 0.2022736517
 0.2026602391
 0.2030460161
 0.2034309874
 0.2038151575
 0.2041985309
 0.2045811121
 0.2049629055
 0.2053439155
 0.2057241464
 0.2061036026
 0.2064822884
 0.2068602079
 0.2072373653
 0.2076137649
 0.2079894107
 0.2083643068
 0.2087384573
 0.2091118661
 0.2094845373
 0.2098564748
 0.2102276825
 0.2105981642
 0.2109679239
 0.2113369653
 0.2117052922
 0.2120729083
 0.2124398174
 0.2128060231
 0.2131715290
 0.2135363389
 0.2139004562
 0.2142638846
 0.2146266275
 0.2149886885
 0.2153500710
 0.2157107785
 0.2160708144
 0.2164301820
 0.2167888848
 0.2171469260
 0.2175043089
 0.2178610369
 0.2182171131
 0.2185725408
 0.2189273232
 0.2192814635
 0.2196349648
 0.2199878302
 0.2203400628
 0.2206916657
 0.2210426420
 0.2213929946
 0.2217427266
 0.2220918409
 0.2224403404
 0.2227882282
 0.2231355071
 0.2234821801
 0.2238282498
 0.2241737193
 0.2245185913
 0.2248628686
 0.2252065541
 0.2255496503
 0.2258921602
 0.2262340863
 0.2265754314
 0.2269161982
 0.2272563893
 0.2275960074
 0.2279350550
 0.2282735347
 0.2286114492
 0.2289488009
 0.2292855925
 0.2296218263
 0.2299575051
 0.2302926311
 0.2306272069
 0.2309612349
 0.2312947176
 0.2316276573
 0.2319600565
 0.2322919175
 0.2326232427
 0.2329540344
 0.2332842949
 0.2336140267
 0.2339432318
 0.2342719127
 0.2346000716
 0.2349277107
 0.2352548323
 0.2355814386
 0.2359075317
 0.2362331139
 0.2365581873
 0.2368827541
 0.2372068163
 0.2375303763
 0.2378534359
 0.2381759974
 0.2384980628
 0.2388196342
 0.2391407136
 0.2394613031
 0.2397814047
 0.2401010203
 0.2404201521
 0.2407388020
 0.2410569719
 0.2413746638
 0.2416918797
 0.2420086215
 0.2423248911
 0.2426406903
 0.2429560212
 0.2432708856
 0.2435852853
 0.2438992222
 0.2442126982
 0.2445257151
 0.2448382747
 0.2451503788
 0.2454620292
 0.2457732277
 0.2460839761
 0.2463942761
 0.2467041295
 0.2470135380
 0.2473225034
 0.2476310274
 0.2479391116
 0.2482467578
 0.2485539677
 0.2488607429
 0.2491670852
 0.2494729961
 0.2497784773
 0.2500835304
 0.2503881571
 0.2506923590
 0.2509961377
 0.2512994948
 0.2516024318
 0.2519049503
 0.2522070520
 0.2525087383
 0.2528100108
 0.2531108710
 0.2534113206
 0.2537113609
 0.2540109935
 0.2543102199
 0.2546090416
 0.2549074600
 0.2552054768
 0.2555030932
 0.2558003108
 0.2560971309
 0.2563935552
 0.2566895849
 0.2569852215
 0.2572804665
 0.2575753211
 0.2578697869
 0.2581638652
 0.2584575574
 0.2587508649
 0.2590437889
 0.2593363310
 0.2596284924
 0.2599202744
 0.2602116785
 0.2605027059
 0.2607933580
 0.2610836360
 0.2613735413
 0.2616630752
 0.2619522389
 0.2622410337
 0.2625294610
 0.2628175219
 0.2631052178
 0.2633925498
 0.2636795193
 0.2639661275
 0.2642523756
 0.2645382648
 0.2648237963
 0.2651089714
 0.2653937913
 0.2656782572
 0.2659623702
 0.2662461316
 0.2665295424
 0.2668126040
 0.2670953174
 0.2673776839
 0.2676597045
 0.2679413805
 0.2682227129
 0.2685037029
 0.2687843516
 0.2690646602
 0.2693446298
 0.2696242614
 0.2699035562
 0.2701825153
 0.2704611398
 0.2707394307
 0.2710173891
 0.2712950162
 0.2715723130
 0.2718492805
 0.2721259199
 0.2724022321
 0.2726782182
 0.2729538792
 0.2732292163
 0.2735042304
 0.2737789225
 0.2740532937
 0.2743273450
 0.2746010774
 0.2748744919
 0.2751475895
 0.2754203712
 0.2756928379
 0.2759649908
 0.2762368307
 0.2765083586
 0.2767795755
 0.2770504824
 0.2773210802
 0.2775913699
 0.2778613524
 0.2781310287
 0.2784003997
 0.2786694664
 0.2789382296
 0.2792066903
 0.2794748495
 0.2797427080
 0.2800102668
 0.2802775268
 0.2805444888
 0.2808111538
 0.2810775227
 0.2813435963
 0.2816093756
 0.2818748614
 0.2821400546
 0.2824049561
 0.2826695668
 0.2829338874
 0.2831979190
 0.2834616622
 0.2837251181
 0.2839882874
 0.2842511710
 0.2845137697
 0.2847760843
 0.2850381157
 0.2852998648
 0.2855613323
 0.2858225191
 0.2860834259
 0.2863440536
 0.2866044030
 0.2868644750
 0.2871242702
 0.2873837895
 0.2876430338
 0.2879020037
 0.2881607001
 0.2884191238
 0.2886772755
 0.2889351560
 0.2891927661
 0.2894501065
 0.2897071781
 0.2899639815
 0.2902205176
 0.2904767870
 0.2907327907
 0.2909885291
 0.2912440033
 0.2914992138
 0.2917541614
 0.2920088468
 0.2922632708
 0.2925174341
 0.2927713375
 0.2930249816
 0.2932783671
 0.2935314949
 0.2937843655
 0.2940369797
 0.2942893382
 0.2945414417
 0.2947932909
 0.2950448865
 0.2952962292
 0.2955473197
 0.2957981586
 0.2960487466
 0.2962990845
 0.2965491729
 0.2967990125
 0.2970486039
 0.2972979478
 0.2975470449
 0.2977958958
 0.2980445012
 0.2982928618
 0.2985409782
 0.2987888511
 0.2990364810
 0.2992838687
 0.2995310148
 0.2997779200
 0.3000245848
 0.3002710099
 0.3005171959
 0.3007631435
 0.3010088533
 0.3012543259
 0.3014995620
 0.3017445621
 0.3019893268
 0.3022338568
 0.3024781528
 0.3027222152
 0.3029660447
 0.3032096419
 0.3034530074
 0.3036961418
 0.3039390458
 0.3041817198
 0.3044241644
 0.3046663804
 0.3049083681
 0.3051501284
 0.3053916616
 0.3056329684
 0.3058740494
 0.3061149051
 0.3063555361
 0.3065959430
 0.3068361263
 0.3070760867
 0.3073158246
 0.3075553406
 0.3077946353
 0.3080337092
 0.3082725629
 0.3085111970
 0.3087496119
 0.3089878083
 0.3092257867
 0.3094635475
 0.3097010914
 0.3099384189
 0.3101755305
 0.3104124268
 0.3106491082
 0.3108855754
 0.3111218288
 0.3113578689
 0.3115936964
 0.3118293116
 0.3120647152
 0.3122999076
 0.3125348893
 0.3127696609
 0.3130042229
 0.3132385758
 0.3134727200
 0.3137066561
 0.3139403846
 0.3141739060
 0.3144072208
 0.3146403294
 0.3148732324
 0.3151059303
 0.3153384236
 0.3155707127
 0.3158027981
 0.3160346803
 0.3162663598
 0.3164978371
 0.3167291126
 0.3169601869
 0.3171910603
 0.3174217335
 0.3176522068
 0.3178824807
 0.3181125557
 0.3183424322
 0.3185721108
 0.3188015918
 0.3190308758
 0.3192599631
 0.3194888543
 0.3197175498
 0.3199460501
 0.3201743556
 0.3204024668
 0.3206303840
 0.3208581078
 0.3210856387
 0.3213129769
 0.3215401231
 0.3217670776
 0.3219938408
 0.3222204133
 0.3224467953
 0.3226729875
 0.3228989902
 0.3231248037
 0.3233504287
 0.3235758654
 0.3238011144
 0.3240261760
 0.3242510506
 0.3244757388
 0.3247002408
 0.3249245572
 0.3251486883
 0.3253726345
 0.3255963963
 0.3258199741
 0.3260433682
 0.3262665792
 0.3264896073
 0.3267124531
 0.3269351169
 0.3271575991
 0.3273799001
 0.3276020203
 0.3278239601
 0.3280457199
 0.3282673002
 0.3284887012
 0.3287099235
 0.3289309673
 0.3291518331
 0.3293725213
 0.3295930322
 0.3298133662
 0.3300335238
 0.3302535053
 0.3304733110
 0.3306929415
 0.3309123969
 0.3311316778
 0.3313507845
 0.3315697174
 0.3317884768
 0.3320070631
 0.3322254768
 0.3324437181
 0.3326617874
 0.3328796851
 0.3330974116
 0.3333149672
 0.3335323523
 0.3337495673
 0.3339666124
 0.3341834882
 0.3344001949
 0.3346167329
 0.3348331025
 0.3350493041
 0.3352653381
 0.3354812048
 0.3356969045
 0.3359124377
 0.3361278046
 0.3363430056
 0.3365580411
 0.3367729113
 0.3369876168
 0.3372021576
 0.3374165344
 0.3376307472
 0.3378447966
 0.3380586829
 0.3382724063
 0.3384859672
 0.3386993660
 0.3389126030
 0.3391256784
 0.3393385928
 0.3395513463
 0.3397639393
 0.3399763722
 0.3401886452
 0.3404007587
 0.3406127130
 0.3408245085
 0.3410361455
 0.3412476242
 0.3414589450
 0.3416701082
 0.3418811142
 0.3420919633
 0.3423026557
 0.3425131918
 0.3427235719
 0.3429337964
 0.3431438654
 0.3433537794
 0.3435635387
 0.3437731435
 0.3439825942
 0.3441918911
 0.3444010345
 0.3446100246
 0.3448188619
 0.3450275465
 0.3452360789
 0.3454444592
 0.3456526878
 0.3458607651
 0.3460686912
 0.3462764666
 0.3464840914
 0.3466915660
 0.3468988907
 0.3471060658
 0.3473130915
 0.3475199682
 0.3477266962
 0.3479332757
 0.3481397070
 0.3483459905
 0.3485521263
 0.3487581149
 0.3489639564
 0.3491696512
 0.3493751995
 0.3495806017
 0.3497858580
 0.3499909686
 0.3501959340
 0.3504007543
 0.3506054298
 0.3508099608
 0.3510143476
 0.3512185905
 0.3514226897
 0.3516266455
 0.3518304582
 0.3520341280
 0.3522376553
 0.3524410402
 0.3526442831
 0.3528473843
 0.3530503439
 0.3532531624
 0.3534558398
 0.3536583766
 0.3538607729
 0.3540630291
 0.3542651453
 0.3544671219
 0.3546689591
 0.3548706572
 0.3550722164
 0.3552736371
 0.3554749194
 0.3556760635
 0.3558770699
 0.3560779387
 0.3562786702
 0.3564792646
 0.3566797222
 0.3568800432
 0.3570802279
 0.3572802766
 0.3574801895
 0.3576799668
 0.3578796088
 0.3580791158
 0.3582784879
 0.3584777255
 0.3586768288
 0.3588757980
 0.3590746334
 0.3592733352
 0.3594719036
 0.3596703390
 0.3598686415
 0.3600668114
 0.3602648489
 0.3604627543
 0.3606605278
 0.3608581696
 0.3610556801
 0.3612530593
 0.3614503076
 0.3616474252
 0.3618444123
 0.3620412692
 0.3622379961
 0.3624345932
 0.3626310608
 0.3628273990
 0.3630236082
 0.3632196885
 0.3634156402
 0.3636114635
 0.3638071587
 0.3640027259
 0.3641981654
 0.3643934774
 0.3645886622
 0.3647837199
 0.3649786509
 0.3651734552
 0.3653681332
 0.3655626850
 0.3657571110
 0.3659514112
 0.3661455860
 0.3663396355
 0.3665335599
 0.3667273595
 0.3669210346
 0.3671145852
 0.3673080117
 0.3675013143
 0.3676944931
 0.3678875483
 0.3680804803
 0.3682732892
 0.3684659752
 0.3686585385
 0.3688509794
 0.3690432980
 0.3692354946
 0.3694275693
 0.3696195225
 0.3698113542
 0.3700030648
 0.3701946543
 0.3703861231
 0.3705774713
 0.3707686991
 0.3709598067
 0.3711507944
 0.3713416624
 0.3715324107
 0.3717230398
 0.3719135496
 0.3721039406
 0.3722942128
 0.3724843664
 0.3726744017
 0.3728643188
 0.3730541181
 0.3732437995
 0.3734333634
 0.3736228100
 0.3738121394
 0.3740013518
 0.3741904475
 0.3743794266
 0.3745682894
 0.3747570360
 0.3749456666
 0.3751341814
 0.3753225806
 0.3755108643
 0.3756990329
 0.3758870865
 0.3760750252
 0.3762628493
 0.3764505589
 0.3766381543
 0.3768256356
 0.3770130030
 0.3772002567
 0.3773873969
 0.3775744238
 0.3777613375
 0.3779481383
 0.3781348263
 0.3783214017
 0.3785078648
 0.3786942156
 0.3788804544
 0.3790665813
 0.3792525966
 0.3794385003
 0.3796242928
 0.3798099742
 0.3799955446
 0.3801810042
 0.3803663532
 0.3805515919
 0.3807367203
 0.3809217387
 0.3811066472
 0.3812914460
 0.3814761352
 0.3816607152
 0.3818451859
 0.3820295477
 0.3822138006
 0.3823979450
 0.3825819808
 0.3827659083
 0.3829497278
 0.3831334392
 0.3833170429
 0.3835005390
 0.3836839276
 0.3838672090
 0.3840503833
 0.3842334506
 0.3844164112
 0.3845992652
 0.3847820128
 0.3849646541
 0.3851471893
 0.3853296186
 0.3855119422
 0.3856941602
 0.3858762728
 0.3860582801
 0.3862401823
 0.3864219796
 0.3866036721
 0.3867852600
 0.3869667435
 0.3871481228
 0.3873293979
 0.3875105691
 0.3876916365
 0.3878726002
 0.3880534605
 0.3882342175
 0.3884148714
 0.3885954223
 0.3887758703
 0.3889562157
 0.3891364586
 0.3893165991
 0.3894966375
 0.3896765738
 0.3898564082
 0.3900361409
 0.3902157721
 0.3903953018
 0.3905747303
 0.3907540577
 0.3909332841
 0.3911124098
 0.3912914348
 0.3914703593
 0.3916491835
 0.3918279076
 0.3920065316
 0.3921850557
 0.3923634801
 0.3925418049
 0.3927200303
 0.3928981565
 0.3930761835
 0.3932541116
 0.3934319408
 0.3936096714
 0.3937873034
 0.3939648370
 0.3941422725
 0.3943196098
 0.3944968492
 0.3946739909
 0.3948510348
 0.3950279813
 0.3952048305
 0.3953815824
 0.3955582373
 0.3957347953
 0.3959112564
 0.3960876210
 0.3962638891
 0.3964400608
 0.3966161364
 0.3967921159
 0.3969679994
 0.3971437872
 0.3973194794
 0.3974950761
 0.3976705774
 0.3978459836
 0.3980212946
 0.3981965108
 0.3983716321
 0.3985466588
 0.3987215910
 0.3988964288
 0.3990711724
 0.3992458219
 0.3994203774
 0.3995948391
 0.3997692072
 0.3999434816
 0.4001176627
 0.4002917505
 0.4004657451
 0.4006396467
 0.4008134555
 0.4009871715
 0.4011607950
 0.4013343259
 0.4015077645
 0.4016811110
 0.4018543653
 0.4020275277
 0.4022005983
 0.4023735773
 0.4025464646
 0.4027192606
 0.4028919653
 0.4030645789
 0.4032371014
 0.4034095331
 0.4035818740
 0.4037541243
 0.4039262840
 0.4040983535
 0.4042703326
 0.4044422217
 0.4046140207
 0.4047857299
 0.4049573494
 0.4051288793
 0.4053003197
 0.4054716708
 0.4056429326
 0.4058141053
 0.4059851891
 0.4061561840
 0.4063270902
 0.4064979079
 0.4066686370
 0.4068392778
 0.4070098304
 0.4071802948
 0.4073506713
 0.4075209600
 0.4076911609
 0.4078612742
 0.4080313000
 0.4082012385
 0.4083710897
 0.4085408538
 0.4087105309
 0.4088801211
 0.4090496246
 0.4092190414
 0.4093883717
 0.4095576157
 0.4097267733
 0.4098958448
 0.4100648302
 0.4102337298
 0.4104025435
 0.4105712715
 0.4107399140
 0.4109084711
 0.4110769428
 0.4112453293
 0.4114136306
 0.4115818471
 0.4117499786
 0.4119180254
 0.4120859876
 0.4122538653
 0.4124216585
 0.4125893675
 0.4127569923
 0.4129245330
 0.4130919899
 0.4132593628
 0.4134266521
 0.4135938578
 0.4137609799
 0.4139280188
 0.4140949743
 0.4142618467
 0.4144286361
 0.4145953425
 0.4147619661
 0.4149285070
 0.4150949654
 0.4152613412
 0.4154276347
 0.4155938460
 0.4157599751
 0.4159260221
 0.4160919872
 0.4162578705
 0.4164236721
 0.4165893922
 0.4167550307
 0.4169205878
 0.4170860637
 0.4172514584
 0.4174167720
 0.4175820047
 0.4177471566
 0.4179122277
 0.4180772182
 0.4182421281
 0.4184069577
 0.4185717070
 0.4187363760
 0.4189009650
 0.4190654739
 0.4192299030
 0.4193942523
 0.4195585220
 0.4197227120
 0.4198868226
 0.4200508539
 0.4202148058
 0.4203786787
 0.4205424725
 0.4207061873
 0.4208698233
 0.4210333806
 0.4211968592
 0.4213602593
 0.4215235809
 0.4216868243
 0.4218499894
 0.4220130763
 0.4221760853
 0.4223390163
 0.4225018695
 0.4226646450
 0.4228273429
 0.4229899632
 0.4231525062
 0.4233149718
 0.4234773602
 0.4236396714
 0.4238019057
 0.4239640630
 0.4241261435
 0.4242881473
 0.4244500744
 0.4246119250
 0.4247736992
 0.4249353971
 0.4250970187
 0.4252585642
 0.4254200337
 0.4255814272
 0.4257427448
 0.4259039867
 0.4260651530
 0.4262262437
 0.4263872590
 0.4265481988
 0.4267090634
 0.4268698529
 0.4270305672
 0.4271912066
 0.4273517711
 0.4275122608
 0.4276726758
 0.4278330162
 0.4279932821
 0.4281534736
 0.4283135907
 0.4284736336
 0.4286336024
 0.4287934972
 0.4289533180
 0.4291130649
 0.4292727381
 0.4294323376
 0.4295918635
 0.4297513159
 0.4299106950
 0.4300700007
 0.4302292332
 0.4303883926
 0.4305474790
 0.4307064924
 0.4308654330
 0.4310243008
 0.4311830959
 0.4313418185
 0.4315004686
 0.4316590463
 0.4318175517
 0.4319759848
 0.4321343459
 0.4322926349
 0.4324508519
 0.4326089971
 0.4327670705
 0.4329250722
 0.4330830023
 0.4332408609
 0.4333986481
 0.4335563639
 0.4337140085
 0.4338715820
 0.4340290843
 0.4341865157
 0.4343438762
 0.4345011659
 0.4346583848
 0.4348155331
 0.4349726109
 0.4351296182
 0.4352865551
 0.4354434217
 0.4356002181
 0.4357569443
 0.4359136006
 0.4360701868
 0.4362267032
 0.4363831498
 0.4365395268
 0.4366958341
 0.4368520718
 0.4370082401
 0.4371643391
 0.4373203687
 0.4374763292
 0.4376322205
 0.4377880428
 0.4379437962
 0.4380994807
 0.4382550964
 0.4384106434
 0.4385661218
 0.4387215317
 0.4388768731
 0.4390321461
 0.4391873508
 0.4393424873
 0.4394975557
 0.4396525560
 0.4398074884
 0.4399623529
 0.4401171496
 0.4402718785
 0.4404265398
 0.4405811336
 0.4407356598
 0.4408901187
 0.4410445102
 0.4411988345
 0.4413530916
 0.4415072816
 0.4416614046
 0.4418154607
 0.4419694499
 0.4421233724
 0.4422772282
 0.4424310174
 0.4425847400
 0.4427383961
 0.4428919859
 0.4430455094
 0.4431989667
 0.4433523578
 0.4435056828
 0.4436589419
 0.4438121350
 0.4439652623
 0.4441183238
 0.4442713197
 0.4444242499
 0.4445771146
 0.4447299138
 0.4448826477
 0.4450353163
 0.4451879196
 0.4453404578
 0.4454929309
 0.4456453390
 0.4457976821
 0.4459499605
 0.4461021740
 0.4462543228
 0.4464064070
 0.4465584267
 0.4467103819
 0.4468622726
 0.4470140991
 0.4471658613
 0.4473175593
 0.4474691931
 0.4476207630
 0.4477722689
 0.4479237109
 0.4480750891
 0.4482264035
 0.4483776543
 0.4485288414
 0.4486799651
 0.4488310253
 0.4489820221
 0.4491329556
 0.4492838258
 0.4494346329
 0.4495853769
 0.4497360579
 0.4498866759
 0.4500372311
 0.4501877234
 0.4503381530
 0.4504885200
 0.4506388243
 0.4507890661
 0.4509392455
 0.4510893625
 0.4512394171
 0.4513894096
 0.4515393398
 0.4516892080
 0.4518390141
 0.4519887582
 0.4521384405
 0.4522880609
 0.4524376196
 0.4525871166
 0.4527365520
 0.4528859258
 0.4530352381
 0.4531844891
 0.4533336787
 0.4534828070
 0.4536318741
 0.4537808801
 0.4539298250
 0.4540787089
 0.4542275318
 0.4543762939
 0.4545249952
 0.4546736358
 0.4548222157
 0.4549707350
 0.4551191938
 0.4552675921
 0.4554159300
 0.4555642076
 0.4557124250
 0.4558605821
 0.4560086791
 0.4561567160
 0.4563046930
 0.4564526100
 0.4566004671
 0.4567482644
 0.4568960020
 0.4570436800
 0.4571912983
 0.4573388571
 0.4574863564
 0.4576337963
 0.4577811769
 0.4579284982
 0.4580757602
 0.4582229631
 0.4583701070
 0.4585171918
 0.4586642177
 0.4588111846
 0.4589580927
 0.4591049421
 0.4592517328
 0.4593984648
 0.4595451383
 0.4596917532
 0.4598383097
 0.4599848078
 0.4601312476
 0.4602776292
 0.4604239525
 0.4605702177
 0.4607164249
 0.4608625740
 0.4610086652
 0.4611546985
 0.4613006740
 0.4614465917
 0.4615924517
 0.4617382541
 0.4618839989
 0.4620296863
 0.4621753161
 0.4623208886
 0.4624664037
 0.4626118616
 0.4627572623
 0.4629026058
 0.4630478923
 0.4631931217
 0.4633382942
 0.4634834098
 0.4636284685
 0.4637734705
 0.4639184157
 0.4640633043
 0.4642081362
 0.4643529117
 0.4644976306
 0.4646422932
 0.4647868994
 0.4649314492
 0.4650759429
 0.4652203803
 0.4653647617
 0.4655090869
 0.4656533562
 0.4657975695
 0.4659417270
 0.4660858286
 0.4662298744
 0.4663738646
 0.4665177991
 0.4666616780
 0.4668055013
 0.4669492692
 0.4670929816
 0.4672366387
 0.4673802405
 0.4675237871
 0.4676672785
 0.4678107147
 0.4679540959
 0.4680974220
 0.4682406932
 0.4683839095
 0.4685270709
 0.4686701776
 0.4688132295
 0.4689562268
 0.4690991694
 0.4692420575
 0.4693848911
 0.4695276702
 0.4696703949
 0.4698130653
 0.4699556815
 0.4700982434
 0.4702407511
 0.4703832047
 0.4705256043
 0.4706679499
 0.4708102415
 0.4709524792
 0.4710946631
 0.4712367933
 0.4713788697
 0.4715208924
 0.4716628616
 0.4718047771
 0.4719466392
 0.4720884478
 0.4722302030
 0.4723719049
 0.4725135535
 0.4726551489
 0.4727966911
 0.4729381802
 0.4730796162
 0.4732209992
 0.4733623292
 0.4735036064
 0.4736448306
 0.4737860021
 0.4739271209
 0.4740681869
 0.4742092003
 0.4743501611
 0.4744910694
 0.4746319252
 0.4747727286
 0.4749134796
 0.4750541783
 0.4751948248
 0.4753354190
 0.4754759610
 0.4756164510
 0.4757568889
 0.4758972747
 0.4760376087
 0.4761778907
 0.4763181209
 0.4764582993
 0.4765984259
 0.4767385009
 0.4768785242
 0.4770184959
 0.4771584161
 0.4772982848
 0.4774381020
 0.4775778679
 0.4777175825
 0.4778572457
 0.4779968578
 0.4781364186
 0.4782759283
 0.4784153870
 0.4785547946
 0.4786941513
 0.4788334570
 0.4789727118
 0.4791119159
 0.4792510691
 0.4793901717
 0.4795292235
 0.4796682247
 0.4798071754
 0.4799460755
 0.4800849252
 0.4802237244
 0.4803624733
 0.4805011718
 0.4806398201
 0.4807784181
 0.4809169660
 0.4810554637
 0.4811939114
 0.4813323090
 0.4814706567
 0.4816089544
 0.4817472022
 0.4818854002
 0.4820235484
 0.4821616469
 0.4822996957
 0.4824376949
 0.4825756444
 0.4827135444
 0.4828513950
 0.4829891961
 0.4831269477
 0.4832646501
 0.4834023031
 0.4835399069
 0.4836774615
 0.4838149669
 0.4839524232
 0.4840898304
 0.4842271887
 0.4843644979
 0.4845017583
 0.4846389697
 0.4847761324
 0.4849132463
 0.4850503114
 0.4851873278
 0.4853242956
 0.4854612149
 0.4855980855
 0.4857349077
 0.4858716814
 0.4860084068
 0.4861450837
 0.4862817124
 0.4864182928
 0.4865548249
 0.4866913089
 0.4868277448
 0.4869641326
 0.4871004723
 0.4872367641
 0.4873730079
 0.4875092038
 0.4876453519
 0.4877814522
 0.4879175047
 0.4880535095
 0.4881894666
 0.4883253761
 0.4884612380
 0.4885970524
 0.4887328193
 0.4888685387
 0.4890042108
 0.4891398355
 0.4892754128
 0.4894109430
 0.4895464259
 0.4896818616
 0.4898172502
 0.4899525917
 0.4900878862
 0.4902231337
 0.4903583342
 0.4904934878
 0.4906285946
 0.4907636545
 0.4908986676
 0.4910336341
 0.4911685538
 0.4913034269
 0.4914382534
 0.4915730333
 0.4917077667
 0.4918424536
 0.4919770942
 0.4921116883
 0.4922462361
 0.4923807376
 0.4925151928
 0.4926496019
 0.4927839647
 0.4929182815
 0.4930525522
 0.4931867768
 0.4933209554
 0.4934550881
 0.4935891749
 0.4937232158
 0.4938572108
 0.4939911601
